X: 18778
T: If Only A Little
R: three-two
M: 3/2
K: Gmajor
|:GDBA- ABGD dc(3BAG|DEGA AGGA ABDE|
GDBA- ABGD dcBG|1 (3BcdeG- GAAB FGGz:|2 (3BcdeG- GAAB FGgg||
M:7/8
|:add a2gf|ega a2gg|c'bg gag2|gfd GAG2|
gad a2gf|ega a2gg|c'bg gag2|gfd G2G2:|

